flaticon/transportation/airplane-1.svg

<svg xmlns="http://www.w3.org/2000/svg" width="32" height="32" viewBox="0 0 24 24">
    <path d="M 17.0625 24 L 12 21.417969 L 6.9375 24 L 6.9375 20.832031 L 9.457031 18.125 L 9.457031 14.957031 L 0 17.796875 L 0 14.683594 L 9.457031 7.96875 L 9.457031 2.957031 C 9.457031 1.324219 10.597656 0 12 0 C 13.402344 0 14.542969 1.324219 14.542969 2.957031 L 14.542969 7.96875 L 24 14.683594 L 24 17.796875 L 14.542969 14.957031 L 14.542969 18.125 L 17.0625 20.832031 Z M 12 20.28125 L 16.042969 22.34375 L 16.042969 21.222656 L 13.519531 18.519531 L 13.519531 13.597656 L 22.980469 16.4375 L 22.980469 15.199219 L 13.519531 8.488281 L 13.519531 2.957031 C 13.519531 1.882812 12.839844 1.007812 12 1.007812 C 11.160156 1.007812 10.480469 1.882812 10.480469 2.957031 L 10.480469 8.488281 L 1.019531 15.199219 L 1.019531 16.4375 L 10.480469 13.597656 L 10.480469 18.519531 L 7.957031 21.222656 L 7.957031 22.34375 Z M 12 20.28125"/>
</svg>

<svg xmlns="http://www.w3.org/2000/svg" width="32" height="32" viewBox="0 0 24 24">
    <path d="M17.063 24L12 21.418 6.937 24v-3.168l2.52-2.707v-3.168L0 17.797v-3.113l9.457-6.715V2.957C9.457 1.324 10.597 0 12 0c1.402 0 2.543 1.324 2.543 2.957v5.012L24 14.684v3.113l-9.457-2.84v3.168l2.52 2.707zM12 20.281l4.043 2.063v-1.121L13.52 18.52v-4.922l9.46 2.84v-1.239l-9.46-6.71V2.956c0-1.074-.68-1.95-1.52-1.95s-1.52.876-1.52 1.95v5.531L1.02 15.2v1.239l9.46-2.84v4.922l-2.523 2.703v1.12zm0 0"/>
</svg>
